X:3
T:Duke of York’s March. JClw.03
M:4/4
L:1/8
Q:1/4=140
S:J.Clews MS,Stoke-upon-Tern,Shrops.1832
N:A counter melody in treble clef has been erased from the MS.NeilB.
A:N. Shropshire
Z:Neil Brookes 2006
K:D
D2D>DF2F>F|AFAFD2A2|dAdA dAFD|A2A>AA2z2|!
a3fd2d2|e2e>gf2za|a3f fdgf|e2e>ee2z2:|!
|:A2A>A Aefg|A2A>A Adfa|geee fddd|bagf f2e2|!
d3 f/2e/2 dAB=c|=cB B4 =c/2d/2e/2f/2|\
ggffeedd|c2e>ee2z2|!
D2D>DF2F>F|AFAFD2g2|faaf gedc|d2d>dd2z2:|

